X:1
T:Elephant Slide
C:Paul Rosen
S:Copyright 2005, Paul Rosen
M:6/8
L:1/8
Q:180
R:Creepy Jig
K:Em
|:"Em"EEE E2G|"C7"_B2A G2F|"Em"EEE E2G|"C7"_B2A "B7"=B3|"Em"EEE
E2G|"C7"_B2A G2F|"Em"GFE "D"F2D|1"Em"E3-E3:|2"Em"E3-E2B|
|:"Em"e2e gfe|"G"g2ab3|"Em"gfeg2e|"D"fedB2A|"Em"e2e
gfe|"G"g2ab3|"Em"gfe"D"f2d|"Em"e3-e3:|
